svg/icons/src/icon-satisfaction.svg

<?xml version="1.0" encoding="UTF-8"?>
<svg width="32px" height="32px" viewBox="0 0 32 32" version="1.1" xmlns="http://www.w3.org/2000/svg" xmlns:xlink="http://www.w3.org/1999/xlink">
    <!-- Generator: Sketch 52.5 (67469) - http://www.bohemiancoding.com/sketch -->
    <title>icon-satisfaction</title>
    <desc>Created with Sketch.</desc>
    <g id="icon-satisfaction" stroke="none" stroke-width="1" fill="none" fill-rule="evenodd">
        <path d="M31.2613333,14.124 L29.6,12.356 L30.1626667,9.992 C30.4793285,8.58515173 29.6622938,7.17100852 28.2853333,6.74266667 L25.9573333,6.05066667 L25.264,3.72266667 C24.8389086,2.34301404 23.4224209,1.52404351 22.0146667,1.844 L19.644,2.4 L17.876,0.737333333 C16.8158614,-0.238959876 15.1841386,-0.238959876 14.124,0.737333333 L12.356,2.4 L9.992,1.844 C8.58484037,1.52529078 7.16939032,2.34308056 6.74266667,3.72133333 L6.05066667,6.048 L3.72,6.74266667 C2.3440042,7.17209119 1.52789239,8.58564092 1.844,9.992 L2.4,12.3573333 L0.737333333,14.1253333 C-0.237863969,15.1864114 -0.237863969,16.8175886 0.737333333,17.8786667 L2.4,19.6453333 L1.83733333,22.0106667 C1.52215683,23.4176929 2.33936321,24.8311293 3.716,25.26 L6.044,25.9533333 L6.736,28.2786667 C7.16325689,29.6565924 8.57799524,30.4745516 9.98533333,30.1573333 L12.356,29.6 L14.124,31.268 C15.1850781,32.2431973 16.8162553,32.2431973 17.8773333,31.268 L19.644,29.6013333 L22.008,30.1626667 C23.4144054,30.4785467 24.8276914,29.661672 25.256,28.2853333 L25.9493333,25.9586667 L28.2786667,25.2653333 C29.6562492,24.8369585 30.4734441,23.4219576 30.156,22.0146667 L29.6,19.644 L31.2693333,17.8746667 C32.2419121,16.812394 32.2384348,15.1821141 31.2613333,14.124 Z M18.5333333,9.944 L18.0733333,12 C17.9795311,12.3568887 18.0565039,12.7371005 18.2817329,13.0294023 C18.5069618,13.321704 18.8549901,13.4930579 19.224,13.4933333 L22.1413333,13.4933333 C22.5183646,13.4930233 22.8732114,13.6715029 23.0977441,13.9743853 C23.3222767,14.2772678 23.3898972,14.6686738 23.28,15.0293333 L22.08,18.7626667 L22.08,18.772 C21.6213333,20.268 20.8306667,21.288 19.2666667,21.288 C15.636,21.288 15.1013333,21.696 11.0773333,19.688 C10.8508247,19.5751296 10.7077553,19.3437394 10.708,19.0906667 L10.708,14 C10.708,13.6318102 11.0064768,13.3333333 11.3746667,13.3333333 L12.8413333,13.3333333 C13.2281627,13.3340024 13.5909828,13.1458735 13.8133333,12.8293333 L16.7226667,9.096 C17.0061586,8.69213739 17.5383403,8.54952203 17.9857958,8.75750353 C18.4332512,8.96548502 18.6673104,9.46425631 18.5413333,9.94133333 L18.5333333,9.944 Z" id="Shape" fill="#2333FF" fill-rule="nonzero"></path>
    </g>
</svg>

<svg width="32" height="32" xmlns="http://www.w3.org/2000/svg"><path d="M31.261 14.124L29.6 12.356l.563-2.364a2.767 2.767 0 0 0-1.878-3.25l-2.328-.691-.693-2.328a2.76 2.76 0 0 0-3.25-1.879l-2.37.556L17.876.737a2.77 2.77 0 0 0-3.752 0L12.356 2.4l-2.364-.556a2.763 2.763 0 0 0-3.25 1.877l-.691 2.327-2.331.695a2.768 2.768 0 0 0-1.876 3.249l.556 2.365-1.663 1.768a2.773 2.773 0 0 0 0 3.754L2.4 19.645l-.563 2.366a2.77 2.77 0 0 0 1.879 3.249l2.328.693.692 2.326a2.765 2.765 0 0 0 3.25 1.878l2.37-.557 1.768 1.668a2.773 2.773 0 0 0 3.753 0l1.767-1.667 2.364.562a2.767 2.767 0 0 0 3.248-1.878l.693-2.326 2.33-.694a2.767 2.767 0 0 0 1.877-3.25l-.556-2.371 1.67-1.77a2.77 2.77 0 0 0-.009-3.75zm-12.728-4.18L18.073 12a1.19 1.19 0 0 0 1.151 1.493h2.917a1.19 1.19 0 0 1 1.139 1.536l-1.2 3.734v.009c-.459 1.496-1.25 2.516-2.813 2.516-3.631 0-4.166.408-8.19-1.6a.667.667 0 0 1-.369-.597V14c0-.368.298-.667.667-.667h1.466c.387.001.75-.187.972-.504l2.91-3.733a1.019 1.019 0 0 1 1.818.845l-.008.003z" fill="#2333FF"/></svg>
